X: 136
T: E tuo ke xijie To the west boarder of the Otug            (Verwaltungseinheit)
%%abc-version 2.0
%%abcx-abcm2ps-target-version 5.9.1 (29 Sep 2008)
%%abc-creator hum2abc beta
%%abcx-conversion-date 2013/10/02 07:44:27
%%abc-edited-by Helmut Schaffrath
%%humdrum-veritas 4291134777
%%humdrum-veritas-data 86831893
%%continueall 1
%%barnumbers 0
L: 1/4
M: 4/4
K: C
G>cED [I:setbarnb 1]| 
c/AG/EG | 
C>D G/ A/ G/ E/ | 
D>EDG, | 
G>ACA, | 
EGE/ D/E | 
C/ D/ED/CA,/ | 
G,>DG,2 |]  



